assets/Other/icon-search-type01.svg

<svg xmlns="http://www.w3.org/2000/svg" width="17" height="18" viewBox="0 0 17 18"><title>icon-search-type01</title><path fill="#333" fill-rule="nonzero" d="m16.7 15.9-4.2-4.3c1.1-1.3 1.7-2.9 1.7-4.5C14.2 3.2 11 0 7.1 0S0 3.2 0 7.1s3.2 7.1 7.1 7.1c1.5 0 2.9-.4 4-1.3l4.2 4.4c.2.2.4.3.7.3.2 0 .5-.1.6-.3.4-.4.4-1 .1-1.4M7.1 1.8c2.9 0 5.2 2.3 5.2 5.2s-2.3 5.2-5.2 5.2S1.9 9.9 1.9 7s2.3-5.2 5.2-5.2"/></svg>

<?xml version="1.0" encoding="UTF-8"?>
<svg width="17px" height="18px" viewBox="0 0 17 18" version="1.1" xmlns="http://www.w3.org/2000/svg" xmlns:xlink="http://www.w3.org/1999/xlink">
    <title>icon-search-type01</title>
    <g id="icon-set最新整理" stroke="none" stroke-width="1" fill="none" fill-rule="evenodd">
        <g id="images/h5/icon-set" transform="translate(-68.000000, -509.000000)" fill="#333333" fill-rule="nonzero">
            <g id="icon-search-type01" transform="translate(68.000000, 509.000000)">
                <path d="M16.7,15.9 L12.5,11.6 C13.6,10.3 14.2,8.7 14.2,7.1 C14.2,3.2 11,0 7.1,0 C3.2,0 0,3.2 0,7.1 C0,11 3.2,14.2 7.1,14.2 C8.6,14.2 10,13.8 11.1,12.9 L15.3,17.3 C15.5,17.5 15.7,17.6 16,17.6 C16.2,17.6 16.5,17.5 16.6,17.3 C17,16.9 17,16.3 16.7,15.9 Z M7.1,1.8 C10,1.8 12.3,4.1 12.3,7 C12.3,9.9 10,12.2 7.1,12.2 C4.2,12.2 1.9,9.9 1.9,7 C1.9,4.1 4.2,1.8 7.1,1.8 Z" id="Shape"></path>
            </g>
        </g>
    </g>
</svg>
